X:247
T:Anderson's
R:reel
D:Conal O'Grada: The Top of Coom
Z:id:hn-reel-247
M:C|
K:D
ABdf efdB|AF~F2 EFDF|ABdf efdf|1 afeg fd~d2:|2 afeg fddf||
|:a2fa bafa|~a2fd edBd|1 a2fa bafa|afef defg:|2 AF~F2 ABdf|afeg fddB||

